X:1
T:Prelude in D Minor
T:Frédéric Chopin
T:Op. 28, No. 24
%%score { ( 1 3 ) | 2 }
L:1/8
Q:1/4=108
M:6/8
K:F
V:1 treble nm="Piano"
V:3 treble 
V:2 bass 
V:1
"^Allegro appassionato" z6 | z6 |!f!!>(! A2!mf! F!>)!!mp! D3- | D3!<(! F!mf!A>!f!d!<)! | %4
 c3-!>(! c2- c/!mf!B/!>)! |!mp! A3 z2 z/ A/ | A2 z/ F/{DEF} ED z | z2 F!<(! A!mf!d>!f!f!<)! | %8
 e3-!>(! e2- e/!mf!d/!>)! | %9
!mp!!<(! A2{/A=Bc} B/4!trill(!Tc/4B/4!trill)!c/4B/4c/4B/4!mf!c/4B/4c/4B/4c/4!<)!A/B/ | %10
!f! c3 _B2 A | G/4!trill(!TA/4G/4!trill)!A/4G/4A/4G/4A/4F/G/!>(! A2 z/!mf! F/!>)! |!mp! C6 | %13
!mp! C/4D/4C/4=B,/4C/4D/4E/4F/4!mf!!<(!G/4A/4_B/4c/4d/4e/4f/4g/4(3a/4b/4c'/4(3d'/4e'/4!8va(!f'/4(3g'/4a'/4b'/4(3c''/4d''/4e''/4!<)!!f! | %14
!ff! f''2!8va)!!>(! z2 z2!>)! |!mf! !trill(!T=B/4!trill)!c/4B/4c/4B/4c/4B/4c/4A/B/ c2 z/ A/ | %16
 E2 f' f'/4e'/4c'/4a/4f/4e/4c/4A/4F/4E/4[K:bass]!mp!(3C/4A,/4F,/4 | %17
 E,2!mp! (3E,/4F,/4E,/4(3^D,/4E,/4^F,/4(3^G,/4A,/4=B,/4(3C/4[K:treble]=D/4!mf!E/4^F/8^G/8A/8=B/8c/8d/8e/8^f/8^g/8a/8!f!=b/8c'/8d'/8e'/8^f'/8^g'/8 | %18
!ff! a'2 z4 | z6 |!f! E2!mf! C!mp! A,3- | A,3 C!mf!E>!f!A | G3- G2- G/F/ | E3 z2 z/ E/ | %24
!mf!!>(! E2 z/ C/!mp!{A,=B,C} =B,A,!>)! z | z2 C E!mf!A>!f!c | =B3- B2- B/A/ | %27
 E2{/E^FG} !trill(!TF/4G/4!trill)!F/4G/4F/4G/4F/4G/4F/4G/4F/4G/4E/F/ | G3 =F2 E | %29
 !trill(!TD/4E/4!trill)!D/4E/4D/4E/4D/4E/4C/D/!mf! E2 z/!mp! C/ | G,6 | %31
 G,/4A,/4G,/4^F,/4G,/4A,/4=B,/4C/4D/4E/4!mf!=F/4G/4A/4=B/4c/4d/4(3e/4f/4g/4(3a/4!f!=b/4c'/4(3d'/4e'/4f'/4(3g'/4a'/4=b'/4 | %32
!ff! c''2 z2 z2 |!f!!>(! !trill(!T^F/4!trill)!G/4F/4G/4F/4G/4!mf!F/4G/4E/F/ G2 z/!>)! E/ | %34
!mp! =B,2 c'- c'/4=b/4g/4e/4c/4=B/4G/4E/4[K:bass]C/4B,/4(3G,/4E,/4C,/4 | %35
 =B,,3- B,,/4C,/4^D,/4^F,/4(3A,/4C/4[K:treble]!mf!^D/4(3^F/4A/4c/4^d/8^f/8a/8c'/8!f!!8va(!(5:4:5^d'/8^f'/8a'/8c''/8^d''/8 | %36
!ff! .e''2!8va)! z!f! G3- | G2 G{/G_B} _A2 z/ G/ |!>(! G2!mf! _E!>)! C3- | C3 _EG>c | %40
 _B2!mp! _A _E3- | E _A>A!mf! A3 | _A2!mf!!>(! F!mp! _D3-!>)! | D2 F!mf! _A_d>!f!f | %44
!>(! _e2!mf! _d!>)!!mp! _A3 | z2!p! F _A_d>f | _e2 _d =A3- | AAA AFz/=G/ | A6- | %49
 A!mp![Aa][Aa] [Aa]!mf!{/[cc']}[Bb]>[Aa] |!f! [Aa]2 [Ff] [Dd]3- | [Dd]2 [Ff] [Aa][dd']>[ff'] | %52
 [ee']2 [dd'] [Gg][dd']>[ff'] | [ee']2 [dd']!<(! [^G^g]!ff![dd'][ff']!<)! | %54
!ff!!8va(! (3[d''f'']/[^c''e'']/[=c''_e'']/(3[=b'd'']/[_b'_d'']/[a'=c'']/(3[^g'=b']/[=g'_b']/[^f'a']/ (3[=f'_a']/[=e'g']/[^d'^f']/(3[=d'=f']/[^c'e']/[=c'_e']/(3[=b=d']/[_b_d']/[=ac']/!8va)! | %55
 (3[^g=b]/[=g_b]/[^fa]/(3[=f_a]/[=eg]/[^d^f]/(3[=d=f]/[^ce]/[=c_e]/ (3[=B=d]/[_B_d]/[=A=c]/(3[^G=B]/[=G_B]/[^FA]/(3[=F^G]/[=EG]/.[DG]/ | %56
!fff! A,2 z/!ff! A/ A3- | AG>F (7:6:7E/F/E/D/E/F/D/ | [A,A] z [Aa] [aa']3- | %59
!<(! [aa'][gg']>[ff'] (7:6:8[ee']/[ff']/[ee']/[dd']/[ee']/[ff']/!<)!z/4[dd']/4 | %60
!fff! [bb'][ee'][ff'] [aa'][gg'][Bb] | [dd'][Gg][Aa] [cc'][Bb]z/[Ee]/ | %62
 [Gg][B,B][Cc] [Ee][Dd][G,G] | [B,B]3[K:bass] [^C,^C]3 | [D,D]2 z4 | %65
[K:treble]!8va(!!>(! [f'f''-]2!ff! f''/4e''/4d''/4=b'/4g'/4f'/4e'/4d'/4!8va)!(6:4:6=b/4g/4!>)!f/4e/4d/4=B/4=G/8!f!F/8E/8D/8[K:bass]=B,/8=G,/8F,/8E,/8 | %66
!mf! D,3- D, z2 |[K:treble] [=B,=B]3!mp! [_B,_B]3 | [A,FA]2 z4 | %69
!ff!!8va(! [f'f''-]2 f''/4e''/4d''/4=b'/4g'/4f'/4e'/4d'/4!8va)!(6:4:6=b/4g/4f/4e/4d/4=B/4=G/8!f!F/8E/8D/8[K:bass]=B,/8=G,/8F,/8E,/8 | %70
 D,3- D, z2 | %71
[K:treble]!mf!!<(! (5:3:5[=B,F=B][B,FB][B,FB][B,FB][B,FB] (5:3:5[B,FB][_B,F_B]!f![B,FB]!<)![B,FB][B,FB] | %72
 !arpeggio![A,FA]2 z!8va(! [d'd'']3!8va)! | %73
 b'/4a'/4f'/4d'/4b/4a/4f/4d/4B/4A/4F/4D/4[K:bass]B,/4A,/4F,/4D,/4B,,/4A,,/4F,,/4D,,/4B,,,/4A,,,/4F,,,/4E,,,/4 | %74
 z6 | z6 |[Q:1/4=36] !fermata!z6 |] %77
V:2
!mp!!ped! D,,/A,,/F,/D,,/A, D,,/A,,/F,/D,,/A, | D,,/A,,/F,/D,,/A, D,,/A,,/F,/D,,/A, | %2
 D,,/A,,/F,/D,,/!p!A, D,,/A,,/F,/D,,/A, | D,,/A,,/F,/D,,/A, D,,/A,,/F,/D,,/!mp!A,!ped-up! | %4
!ped! D,,/A,,/F,/D,,/A, D,,/A,,/F,/D,,/!p!A,!ped-up! | %5
!ped! D,,/A,,/F,/D,,/A, D,,/A,,/F,/D,,/A,!ped-up! | %6
!ped! D,,/A,,/F,/D,,/A,!ped-up!!ped! D,,/A,,/F,/D,,/A,!ped-up! | %7
!ped! D,,/A,,/F,/D,,/A, D,,/A,,/F,/D,,/!mp!A,!ped-up! | %8
!ped! D,,/A,,/F,/D,,/A, D,,/A,,/F,/D,,/!p!A,!ped-up! | %9
!ped! D,,/A,,/F,/D,,/!ped-up!A,!ped! D,,/G,,/F,/D,,/!mp!G,!ped-up! | %10
!ped! C,,/A,,/F,/C,,/A,!ped-up!!ped! C,,/A,,/F,/C,,/A,!ped-up! | %11
!ped! C,,/G,,/F,/C,,/G,!ped-up!!ped! C,,/G,,/F,/C,,/!p!G,!ped-up! | %12
!ped! C,,/B,,/F,/C,,/G, C,,/B,,/F,/C,,/G,!ped-up! | %13
!ped! C,,/B,,/E,/C,,/!mp!G, C,,/B,,/!mf!E,/C,,/G,!ped-up! | %14
!ped! F,,/C,/A,/F,,/!mp!C F,,/C,/A,/F,,/C!ped-up! | %15
!ped! F,,/^D,/A,/F,,/=B,!ped-up!!ped! F,,/=B,,/A,/F,,/B,!ped-up! | %16
!ped! E,,/C,/A,/E,,/C!ped-up!!ped! E,,/C,/A,/E,,/!p!!>(!C!ped-up!!>)! | %17
!ped! E,,/D,/^G,/E,,/!mp!!<(!=B,!ped-up! E,,/!ped!D,/!mf!G,/E,,/B,!<)!!ped-up! | %18
!mp!!ped! A,,,/E,,/C,/A,,,/E, A,,,/E,,/C,/A,,,/E, | A,,,/E,,/C,/A,,,/E, A,,,/E,,/C,/A,,,/E, | %20
 A,,,/E,,/C,/A,,,/!p!!>(!E, A,,,/E,,/C,/A,,,/E,!>)! | %21
 A,,,/E,,/C,/A,,,/E, A,,,/E,,/!<(!C,/A,,,/!mp!E,!ped-up!!<)! | %22
!ped! A,,,/E,,/C,/A,,,/E, A,,,/E,,/C,/A,,,/E,!ped-up! | %23
!ped! A,,,/E,,/C,/A,,,/E, A,,,/E,,/C,/A,,,/E,!ped-up! | %24
!ped! A,,,/E,,/C,/A,,,/!p!E,!ped-up!!ped! A,,,/E,,/C,/A,,,/E,!ped-up! | %25
!ped! A,,,/E,,/C,/A,,,/E,!<(! A,,,/E,,/C,/A,,,/!mp!E,!ped-up!!<)! | %26
!ped! A,,,/E,,/C,/A,,,/E, A,,,/E,,/C,/A,,,/E,!ped-up! | %27
!ped! A,,,/E,,/C,/A,,,/E,!ped-up!!ped! A,,,/D,,/C,/A,,,/D,!ped-up! | %28
!ped! G,,,/E,,/C,/G,,,/E,!ped-up!!ped! G,,,/E,,/C,/G,,,/E,!ped-up! | %29
!ped! G,,,/D,,/C,/G,,,/D,!ped-up!!ped!!>(! G,,,/E,,/C,/G,,,/!p!E,!ped-up!!>)! | %30
!ped! G,,,/D,,/C,/G,,,/D, G,,,/D,,/C,/G,,,/D,!ped-up! | %31
!ped! G,,,/F,,/=B,,/G,,,/!mp!!<(!D,!ped-up!!ped! G,,,/F,,/B,,/G,,,/!<)!!mf!E,!ped-up! | %32
!ped! C,,/G,,/E,/C,,/!mp!G, C,,/G,,/E,/C,,/G,!ped-up! | %33
!ped! C,,/^F,,/E,/C,,/!ped-up!^F,!ped! C,,/F,,/E,/C,,/!ped-up!!p!F, | %34
!ped! =B,,,/G,,/E,/B,,,/!ped-up!G,!ped! B,,,/G,,/E,/B,,,/G,!ped-up! | %35
!ped! =B,,,/A,,/^D,/B,,,/^F,!ped-up! B,,,/!<(!A,,/!ped!D,/B,,,/!mp!F,!<)!!ped-up! | %36
!ped! E,,/=B,,/G,/E,,/=B,!ped! E,,/!ped-up!B,,/G,/E,,/B, | %37
!ped! _E,,/=B,,/G,/E,,/=B,!ped-up!!ped! E,,/B,,/G,/E,,/B,!ped-up! | %38
!ped! C,,/G,,/_E,/C,,/G,!ped-up!!ped! C,,/G,,/E,/C,,/G,!ped-up! | %39
 C,,/G,,/_E,/C,,/G,!ped-up!!ped! C,,/G,,/E,/C,,/G, | %40
!mp!!ped! C,,/_A,,/_E,/C,,/_A,!ped-up!!ped! C,,/A,,/E,/C,,/A,!ped-up! | %41
!ped! C,,/_A,,/_G,/C,,/_A,!<(!!ped-up!!ped! C,,/A,,/G,/C,,/!<)!A,!ped-up! | %42
!ped! _D,,/_A,,/F,/D,,/_A,!ped-up!!ped! D,,/A,,/F,/D,,/A,!ped-up! | %43
!ped! _D,,/_A,,/F,/D,,/_A,!ped-up!!ped!!<(! D,,/A,,/F,/D,,/A,!ped-up!!<)! | %44
!ped! _D,,/_A,,/F,/D,,/_A,!ped-up!!ped! D,,/!p!A,,/F,/D,,/A,!ped-up! | %45
!ped! _D,,/_A,,/F,/D,,/_A, D,,/A,,/F,/D,,/A,!ped-up! | %46
!ped! _D,,/=A,,/F,/D,,/=A,!ped-up!!ped! D,,/A,,/F,/D,,/A,!ped-up! | %47
 _D,,/A,,/F,/D,,/A,!ped-up!!ped! D,,/A,,/F,/D,,/A, | %48
!ped! _D,,/A,,/F,/D,,/A, D,,/A,,/!p!!<(!F,/D,,/A,!ped-up! | %49
!ped! ^C,,/A,,/F,/C,,/A,!ped-up!!ped! C,,/A,,/!mp!F,/C,,/!<)!A,!ped-up! | %50
!ped! D,,/A,,/F,/D,,/A,!ped-up!!ped! D,,/A,,/F,/D,,/A,!ped-up! | %51
 D,,/A,,/F,/D,,/A,!ped-up!!ped! D,,/A,,/!mf!F,/D,,/A, | %52
!ped! B,,,/G,,/D,/B,,,/E,!ped-up!!ped! B,,,/G,,/D,/B,,,/E,!ped-up! | %53
!ped! B,,,/^G,,/D,/B,,,/F,!ped-up!!ped! B,,,/G,,/!f!D,/B,,,/F,!ped-up! | %54
!ped! B,,,/^G,,/D,/B,,,/F, B,,,/G,,/D,/B,,,/F,!ped-up! | %55
!ped! B,,,/^G,,/D,/B,,,/F,!ped-up!!ped! B,,,/G,,/D,/B,,,/F,!ped-up! | %56
!ped! A,,,/F,,/D,/A,,,/F,!ped-up!!ped! A,,,/F,,/D,/A,,,/!ped-up!F, | %57
 A,,,/F,,/D,/A,,,/F,!ped-up!!ped! A,,,/F,,/D,/A,,,/F, | %58
!ped! A,,,/F,,/D,/A,,,/F,!ped-up!!ped! A,,,/F,,/D,/A,,,/F, |!ped-up! %59
 A,,,/F,,/D,/A,,,/!ff!F,!ped-up!!ped! A,,,/F,,/D,/A,,,/F, | %60
!ped! A,,,/G,,/D,/A,,,/E, A,,,/G,,/D,/A,,,/E,!ped-up! | %61
!ped! A,,,/G,,/D,/A,,,/E, A,,,/G,,/D,/A,,,/E,!ped-up! | %62
!ped! A,,,/G,,/D,/A,,,/E,!ped-up!!ped! A,,,/G,,/D,/A,,,/!ped-up!E, | %63
!ped! A,,,/G,,/D,/A,,,/E, A,,,/!ped-up!!ped!G,,/A,,/A,,,/E,!ped-up! | %64
!ped! D,,/A,,/F,/D,,/A, D,,/A,,/F,/D,,/A,!ped-up! | %65
!ped! D,,/^G,,/F,/D,,/!f!^G, D,,/G,,/F,/D,,/!mf!G,!ped-up! | %66
!ped! D,,/A,,/F,/D,,/A, D,,/A,,/F,/D,,/!mp!A,!ped-up! | %67
!ped! D,,/^G,,/F,/D,,/^G,!ped-up!!ped! D,,/G,,/F,/D,,/G,!ped-up! | %68
!ped! D,,/A,,/F,/D,,/A,!ped-up!!ped! D,,/A,,/F,/D,,/A,!ped-up! | %69
!f!!ped! D,,/!>(!^G,,/F,/D,,/^G, D,,/G,,/F,/!>)!D,,/!mf!G,!ped-up! | %70
!ped! D,,/A,,/F,/D,,/A, D,,/A,,/F,/D,,/!mp!A,!ped-up! | %71
!ped! D,,/^G,,/F,/D,,/!f!^G, D,,/!ped-up!!ped!G,,/F,/D,,/G,!ped-up! | %72
!ped!!ff! !arpeggio![D,,A,,F,]2 z[K:treble]!fff! [FAdf]3!ped-up! | z6 | %74
[K:bass]!ped! D,,,3- D,,,!ped-up! z z | D,,,3- D,,, z z | D,,,3- D,,, !fermata!z z |] %77
V:3
 x6 | x6 | x6 | x6 | x6 | x6 | x6 | x6 | x6 | x6 | x6 | x6 | x6 | x29/6!8va(! x7/6 | x2!8va)! x4 | %15
 x6 | x11/2[K:bass] x/ | x11/3[K:treble] x7/3 | x6 | x6 | x6 | x6 | x6 | x6 | x6 | x6 | x6 | x6 | %28
 x6 | x6 | x6 | x6 | x6 | x6 | x5[K:bass] x | x13/3[K:treble] x7/6!8va(! x/ | x2!8va)! x4 | x6 | %38
 x6 | x6 | x6 | x3 _A/F/!f!_G/_E/G/_A,/ | x6 | x6 | x6 | x6 | x6 | x6 | x6 | x6 | x6 | x6 | x6 | %53
 x6 |!8va(! x6!8va)! | x6 | x6 | x6 | x6 | x6 | x6 | x6 | x6 | x3[K:bass] x3 | x6 | %65
[K:treble]!8va(! x4!8va)! x3/2[K:bass] x/ | x6 |[K:treble] F6 | x6 | %69
!8va(! x4!8va)! x3/2[K:bass] x/ | x6 |[K:treble] x6 | x3!8va(! x3!8va)! | x3[K:bass] x3 | x6 | x6 | %76
 x6 |] %77

